shell/app/images/ts.svg

<?xml version="1.0" encoding="UTF-8"?>
<svg width="199px" height="186px" viewBox="0 0 199 186" version="1.1" xmlns="http://www.w3.org/2000/svg" xmlns:xlink="http://www.w3.org/1999/xlink">
    <!-- Generator: Sketch 64 (93537) - https://sketch.com -->
    <title>ts</title>
    <desc>Created with Sketch.</desc>
    <defs>
        <rect id="path-1" x="0" y="0" width="200" height="200"></rect>
        <radialGradient cx="50%" cy="-29.7362992%" fx="50%" fy="-29.7362992%" r="129.736299%" gradientTransform="translate(0.500000,-0.297363),scale(0.328125,1.000000),rotate(90.000000),scale(1.000000,1.385870),translate(-0.500000,0.297363)" id="radialGradient-3">
            <stop stop-color="#E7E7E9" offset="0%"></stop>
            <stop stop-color="#E7E7E9" stop-opacity="0" offset="100%"></stop>
        </radialGradient>
        <linearGradient x1="50%" y1="-24.977938%" x2="50%" y2="41.640794%" id="linearGradient-4">
            <stop stop-color="#CDCED1" stop-opacity="0.5" offset="0%"></stop>
            <stop stop-color="#CDCED1" stop-opacity="0" offset="100%"></stop>
        </linearGradient>
        <linearGradient x1="50%" y1="0%" x2="50%" y2="59.7604305%" id="linearGradient-5">
            <stop stop-color="#CDCED1" stop-opacity="0.5" offset="0%"></stop>
            <stop stop-color="#CDCED1" stop-opacity="0" offset="100%"></stop>
        </linearGradient>
        <linearGradient x1="36.7091543%" y1="48.6834769%" x2="26.0761502%" y2="50.4867726%" id="linearGradient-6">
            <stop stop-color="#070A1A" stop-opacity="0" offset="0%"></stop>
            <stop stop-color="#070A1A" stop-opacity="0.1" offset="100%"></stop>
        </linearGradient>
        <linearGradient x1="50%" y1="0%" x2="50%" y2="100%" id="linearGradient-7">
            <stop stop-color="#F5F5F6" offset="0%"></stop>
            <stop stop-color="#F0F1F2" offset="100%"></stop>
        </linearGradient>
        <linearGradient x1="50%" y1="0%" x2="50%" y2="100%" id="linearGradient-8">
            <stop stop-color="#C1DAA5" offset="0%"></stop>
            <stop stop-color="#8DB36C" offset="100%"></stop>
        </linearGradient>
        <linearGradient x1="50%" y1="0%" x2="50%" y2="100%" id="linearGradient-9">
            <stop stop-color="#DBDCDF" offset="0%"></stop>
            <stop stop-color="#B5B6BB" offset="100%"></stop>
        </linearGradient>
        <linearGradient x1="50%" y1="0%" x2="50%" y2="100%" id="linearGradient-10">
            <stop stop-color="#F9F9FA" offset="0%"></stop>
            <stop stop-color="#F0F1F2" offset="100%"></stop>
        </linearGradient>
    </defs>
    <g id="0813-api市场/云管/关联" stroke="none" stroke-width="1" fill="none" fill-rule="evenodd">
        <g id="ts" transform="translate(-1.000000, -14.000000)">
            <g id="Message-Page/Components/操作成功">
                <mask id="mask-2" fill="white">
                    <use xlink:href="#path-1"></use>
                </mask>
                <g id="矩形"></g>
                <ellipse id="椭圆形" fill="url(#radialGradient-3)" mask="url(#mask-2)" cx="100" cy="167.1875" rx="100" ry="32.8125"></ellipse>
                <circle id="椭圆形" fill="url(#linearGradient-4)" opacity="0.7" mask="url(#mask-2)" cx="23.828125" cy="58.203125" r="17.578125"></circle>
                <circle id="椭圆形复制-3" fill="url(#linearGradient-5)" opacity="0.5" mask="url(#mask-2)" cx="186.328125" cy="87.109375" r="17.578125"></circle>
                <circle id="椭圆形复制" fill="url(#linearGradient-5)" opacity="0.4" mask="url(#mask-2)" cx="61.328125" cy="46.09375" r="31.25"></circle>
                <circle id="椭圆形复制-2" fill="url(#linearGradient-5)" opacity="0.4" mask="url(#mask-2)" cx="152.34375" cy="69.53125" r="31.25"></circle>
                <path d="M43.4601335,142.96875 L110.647633,142.96875 C111.942051,142.96875 111.761924,143.189029 110.24531,143.460756 L31.5245285,157.564932 C30.0079138,157.836659 27.7291221,158.056938 26.4347047,158.056938 L-40.3504715,157.8125 C-41.6448889,157.8125 -41.8670862,157.836659 -40.3504715,157.564932 L38.3703097,143.460756 C39.8869244,143.189029 42.1657161,142.96875 43.4601335,142.96875 Z" id="矩形" fill="url(#linearGradient-6)" mask="url(#mask-2)" transform="translate(35.052827, 150.512844) scale(-1, 1) translate(-35.052827, -150.512844) "></path>
                <g id="编组-3" mask="url(#mask-2)">
                    <g transform="translate(37.500000, 64.062500)">
                        <rect id="矩形" fill="url(#linearGradient-7)" x="0" y="0" width="125" height="93.75" rx="4"></rect>
                        <g id="Group-11" stroke-width="1" fill="none" transform="translate(46.093750, 32.812500)">
                            <circle id="Oval" fill="url(#linearGradient-8)" cx="17.1875" cy="17.1875" r="17.1875"></circle>
                            <path d="M28.6323922,10.050687 L26.8568148,8.10105642 C26.6809953,7.9065795 26.4406422,7.80303908 26.1891873,7.81318057 C25.9377324,7.82332686 25.6960148,7.94576177 25.5177696,8.15298774 L14.3680096,20.3713895 L9.65363511,15.39587 C9.28911714,15.0191377 8.69389683,15.0226733 8.3241174,15.4010415 L6.52948502,17.222759 C6.1604104,17.5964807 6.15635668,18.2007968 6.5203906,18.5812712 L13.6798651,26.2341883 C14.0483487,26.641375 14.6452106,26.6748104 15.0189103,26.3064585 L28.6224316,11.5743636 C28.8021917,11.3690558 28.9043536,11.0922827 28.90625,10.805796 C28.9080941,10.5193041 28.8095179,10.2473729 28.6323922,10.050687 Z" id="路径" fill="#F6F6F7" fill-rule="nonzero"></path>
                        </g>
                        <g id="编组" stroke-width="1" fill="none">
                            <path d="M4,0 L121,0 C123.209139,-8.49901461e-16 125,1.790861 125,4 L125,13.28125 L125,13.28125 L0,13.28125 L0,4 C-2.705415e-16,1.790861 1.790861,4.05812251e-16 4,0 Z" id="矩形" fill="url(#linearGradient-9)" fill-rule="nonzero"></path>
                            <circle id="椭圆形" fill="url(#linearGradient-10)" cx="8.984375" cy="6.640625" r="2.734375"></circle>
                            <circle id="椭圆形备份" fill="url(#linearGradient-10)" cx="17.578125" cy="6.640625" r="2.734375"></circle>
                            <circle id="椭圆形备份-2" fill="url(#linearGradient-10)" cx="26.171875" cy="6.640625" r="2.734375"></circle>
                        </g>
                    </g>
                </g>
            </g>
        </g>
    </g>
</svg>

<svg width="199" height="186" viewBox="0 0 199 186" xmlns="http://www.w3.org/2000/svg" xmlns:xlink="http://www.w3.org/1999/xlink"><defs><path id="a" d="M0 0h200v200H0z"/><radialGradient cy="-29.736%" fx="50%" fy="-29.736%" r="129.736%" gradientTransform="matrix(0 1 -.45474 0 .365 -.797)" id="b"><stop stop-color="#E7E7E9" offset="0%"/><stop stop-color="#E7E7E9" stop-opacity="0" offset="100%"/></radialGradient><linearGradient x1="50%" y1="-24.978%" x2="50%" y2="41.641%" id="d"><stop stop-color="#CDCED1" stop-opacity=".5" offset="0%"/><stop stop-color="#CDCED1" stop-opacity="0" offset="100%"/></linearGradient><linearGradient x1="50%" y1="0%" x2="50%" y2="59.76%" id="e"><stop stop-color="#CDCED1" stop-opacity=".5" offset="0%"/><stop stop-color="#CDCED1" stop-opacity="0" offset="100%"/></linearGradient><linearGradient x1="36.709%" y1="48.683%" x2="26.076%" y2="50.487%" id="f"><stop stop-color="#070A1A" stop-opacity="0" offset="0%"/><stop stop-color="#070A1A" stop-opacity=".1" offset="100%"/></linearGradient><linearGradient x1="50%" y1="0%" x2="50%" y2="100%" id="g"><stop stop-color="#F5F5F6" offset="0%"/><stop stop-color="#F0F1F2" offset="100%"/></linearGradient><linearGradient x1="50%" y1="0%" x2="50%" y2="100%" id="h"><stop stop-color="#C1DAA5" offset="0%"/><stop stop-color="#8DB36C" offset="100%"/></linearGradient><linearGradient x1="50%" y1="0%" x2="50%" y2="100%" id="i"><stop stop-color="#DBDCDF" offset="0%"/><stop stop-color="#B5B6BB" offset="100%"/></linearGradient><linearGradient x1="50%" y1="0%" x2="50%" y2="100%" id="j"><stop stop-color="#F9F9FA" offset="0%"/><stop stop-color="#F0F1F2" offset="100%"/></linearGradient></defs><g transform="translate(-1 -14)" fill="none" fill-rule="evenodd"><mask id="c" fill="#fff"><use xlink:href="#a"/></mask><ellipse fill="url(#b)" mask="url(#c)" cx="100" cy="167.188" rx="100" ry="32.813"/><circle fill="url(#d)" opacity=".7" mask="url(#c)" cx="23.828" cy="58.203" r="17.578"/><circle fill="url(#e)" opacity=".5" mask="url(#c)" cx="186.328" cy="87.109" r="17.578"/><circle fill="url(#e)" opacity=".4" mask="url(#c)" cx="61.328" cy="46.094" r="31.25"/><circle fill="url(#e)" opacity=".4" mask="url(#c)" cx="152.344" cy="69.531" r="31.25"/><path d="M43.46 142.969h67.188c1.294 0 1.114.22-.403.492l-78.72 14.104c-1.517.272-3.796.492-5.09.492l-66.785-.244c-1.295 0-1.517.024 0-.248l78.72-14.104c1.517-.272 3.796-.492 5.09-.492z" fill="url(#f)" mask="url(#c)" transform="matrix(-1 0 0 1 70.106 0)"/><g mask="url(#c)"><g transform="translate(37.5 64.063)"><rect fill="url(#g)" width="125" height="93.75" rx="4"/><g transform="translate(46.094 32.813)"><circle fill="url(#h)" cx="17.188" cy="17.188" r="17.188"/><path d="M28.632 10.05l-1.775-1.949a.85.85 0 0 0-.668-.288.942.942 0 0 0-.671.34l-11.15 12.218-4.714-4.975a.922.922 0 0 0-1.33.005L6.53 17.223a.977.977 0 0 0-.009 1.358l7.16 7.653c.368.407.965.44 1.339.072l13.603-14.732c.18-.205.282-.482.284-.768a1.118 1.118 0 0 0-.274-.755z" fill="#F6F6F7" fill-rule="nonzero"/></g><path d="M4 0h117a4 4 0 0 1 4 4v9.281H0V4a4 4 0 0 1 4-4z" fill="url(#i)" fill-rule="nonzero"/><circle fill="url(#j)" cx="8.984" cy="6.641" r="2.734"/><circle fill="url(#j)" cx="17.578" cy="6.641" r="2.734"/><circle fill="url(#j)" cx="26.172" cy="6.641" r="2.734"/></g></g></g></svg>
